X:1
T:St Hugh
T:Arthur Patton
T:St Hugh
C:Arthur Patton
%%score { ( 1 2 ) | ( 3 4 ) }
L:1/8
Q:1/4=184
M:4/2
K:F
V:1 treble nm="Piano" snm="Pno."
V:2 treble 
V:3 bass 
V:4 bass 
V:1
 c6 d2 c4 A4 | F4 G4 A8 | C6 D2 E4 F4 | G4 ^F4 G8 | c6 d2 c4 A4 | F4 G4 A8 | A4 =B4 c4 B4 | %7
 A4 ^G4 A8 | A6 G2 G4 A4 | G4 F4 C8 | D4 E4 F4 G4 | A8 G8 | F16 | F8 F8 |] %14
V:2
 F6 F2 F4 F4 | D4 D4 C8 | C6 C2 C4 C4 | E4 ^D4 E8 | F6 F2 E4 F4 | D4 E4 E8 | F4 E4 E4 F4 | %7
 E4 E4 E8 | E6 E2 E4 E4 | C4 C4 C8 | C4 C4 C4 D4 | (C4 F4) E8 | F16 | D8 C8 |] %14
V:3
 A,6 B,2 A,4 C4 | B,4 B,4 A,8 | A,6 A,2 A,4 A,4 | B,4 A,4 B,8 | A,6 G,2 G,4 A,4 | B,4 D4 ^C8 | %6
 D4 D4 C4 D4 | C4 =B,4 C8 | C6 B,2 B,4 B,4 | B,4 A,4 A,8 | F,4 G,4 F,4 F,4 | (F,4 A,4) (C4 B,4) | %12
 A,16 | B,8 A,8 |] %14
V:4
 F,6 F,2 F,4 F,4 | F,4 F,4 F,8 | F,6 F,2 F,4 F,4 | C,4 C,4 C,8 | C,6 B,,2 C,4 F,4 | B,4 B,4 A,8 | %6
 A,4 ^G,4 A,4 D,4 | E,4 E,4 A,8 | C,6 C,2 C,4 C,4 | F,4 F,4 F,8 | B,,4 B,,4 A,,4 B,,4 | C,8 C,8 | %12
 F,16 | B,,8 F,8 |] %14

